X: 1632
T: Thirty Years Ago   #2
%S: s:2 b:12(6+6)
R: hornpipe, reel
B: O'Neills 1632
O: F.O'Neill
Z: Nick Terhorst, nickte@microsoft.com
Z: Compacted via repeats and multiple endings [JC]
M: 2/4
L: 1/16
K: G
(Bc) | dBeB dBAB | GFGA \
[1,3 GDGA | BGBd cBAG | FGAF D2 :|\
[2,4 GABc | defe dcAF | G2{A}GF G2 :|
|: (3DEF |: GFGA B2AG | FGA[FB] \
[1,3 DEFD | GFGA B2AG | Adde dcBA :|\
[2,4 c2Bc | defe dcAF | G2{A}GF G2 :|
